img/pin.svg

<svg fill="none" height="800" viewBox="0 0 24 24" width="800" xmlns="http://www.w3.org/2000/svg">
    <path d="m19.1835 7.80516-2.9647-2.96761c-2.0267-2.02865-3.04-3.04298-4.1284-2.80287-1.0883.24012-1.5818 1.58687-2.5687 4.28038l-.66797 1.82304c-.2631.71807-.39465 1.0771-.63134 1.35482-.1062.12462-.22703.23595-.35988.33159-.29607.21319-.6644.31469-1.40106.51779-1.66038.4577-2.49057.6866-2.80341 1.2298-.13524.2348-.20562.5014-.20391.7725.00396.6269.61285 1.2364 1.83063 2.4554l1.41459 1.4163-4.4759 4.4801c-.29793.2982-.29793.7818 0 1.08s.78098.2982 1.07891 0l4.47605-4.4803 1.466 1.4674c1.22549 1.2267 1.83829 1.8401 2.46899 1.841.2658.0004.527-.0687.7579-.2004.5479-.3127.778-1.149 1.2382-2.8216.2024-.7353.3035-1.103.5159-1.399.093-.1295.2008-.2477.3214-.3521.2753-.2384.632-.3724 1.3454-.6404l1.844-.6929c2.6638-1.0008 3.9957-1.5012 4.2305-2.5866.2347-1.0855-.7713-2.09245-2.7832-4.10634z"
          fill="#ffffff"/>
</svg>

<?xml version="1.0" encoding="utf-8"?><!-- Uploaded to: SVG Repo, www.svgrepo.com, Generator: SVG Repo Mixer Tools -->
<svg width="800px" height="800px" viewBox="0 0 24 24" fill="none" xmlns="http://www.w3.org/2000/svg">
    <path d="M19.1835 7.80516L16.2188 4.83755C14.1921 2.8089 13.1788 1.79457 12.0904 2.03468C11.0021 2.2748 10.5086 3.62155 9.5217 6.31506L8.85373 8.1381C8.59063 8.85617 8.45908 9.2152 8.22239 9.49292C8.11619 9.61754 7.99536 9.72887 7.86251 9.82451C7.56644 10.0377 7.19811 10.1392 6.46145 10.3423C4.80107 10.8 3.97088 11.0289 3.65804 11.5721C3.5228 11.8069 3.45242 12.0735 3.45413 12.3446C3.45809 12.9715 4.06698 13.581 5.28476 14.8L6.69935 16.2163L2.22345 20.6964C1.92552 20.9946 1.92552 21.4782 2.22345 21.7764C2.52138 22.0746 3.00443 22.0746 3.30236 21.7764L7.77841 17.2961L9.24441 18.7635C10.4699 19.9902 11.0827 20.6036 11.7134 20.6045C11.9792 20.6049 12.2404 20.5358 12.4713 20.4041C13.0192 20.0914 13.2493 19.2551 13.7095 17.5825C13.9119 16.8472 14.013 16.4795 14.2254 16.1835C14.3184 16.054 14.4262 15.9358 14.5468 15.8314C14.8221 15.593 15.1788 15.459 15.8922 15.191L17.7362 14.4981C20.4 13.4973 21.7319 12.9969 21.9667 11.9115C22.2014 10.826 21.1954 9.81905 19.1835 7.80516Z"
          fill="#FFFFFF"/>
</svg>
